src/assets/duotone/Emercoin.svg

<?xml version="1.0" encoding="UTF-8"?>
<svg width="24" height="24" viewBox="0 0 24 24" xmlns="http://www.w3.org/2000/svg">
 <path d="m12 22c5.5228 0 10-4.4772 10-10 0-5.5228-4.4772-10-10-10-5.5228 0-10 4.4772-10 10 0 5.5228 4.4772 10 10 10z" opacity=".4"/>
 <path d="m16.5 7.25h-9c-0.41 0-0.75 0.34-0.75 0.75s0.34 0.75 0.75 0.75h4.25v2.5h-4.25c-0.41 0-0.75 0.34-0.75 0.75s0.34 0.75 0.75 0.75h5c0.41 0 0.75-0.34 0.75-0.75v-3.25h2.5v6.5h-8.25c-0.41 0-0.75 0.34-0.75 0.75s0.34 0.75 0.75 0.75h9c0.41 0 0.75-0.34 0.75-0.75v-8c0-0.41-0.34-0.75-0.75-0.75z"/>
</svg>

<svg width="24" height="24" viewBox="0 0 24 24"  xmlns="http://www.w3.org/2000/svg">
<path opacity="0.4" d="M12 22C17.5228 22 22 17.5228 22 12C22 6.47715 17.5228 2 12 2C6.47715 2 2 6.47715 2 12C2 17.5228 6.47715 22 12 22Z" />
<path d="M16.5 7.25H7.5C7.09 7.25 6.75 7.59 6.75 8C6.75 8.41 7.09 8.75 7.5 8.75H11.75V11.25H7.5C7.09 11.25 6.75 11.59 6.75 12C6.75 12.41 7.09 12.75 7.5 12.75H12.5C12.91 12.75 13.25 12.41 13.25 12V8.75H15.75V15.25H7.5C7.09 15.25 6.75 15.59 6.75 16C6.75 16.41 7.09 16.75 7.5 16.75H16.5C16.91 16.75 17.25 16.41 17.25 16V8C17.25 7.59 16.91 7.25 16.5 7.25Z" />
</svg>
